packages/icons/src/desktop.svg

<svg width="15" height="15" viewBox="0 0 15 15" fill="none" xmlns="http://www.w3.org/2000/svg">
  <path
    fill-rule="evenodd"
    clip-rule="evenodd"
    d="M1 3.25C1 3.11193 1.11193 3 1.25 3H13.75C13.8881 3 14 3.11193 14 3.25V10.75C14 10.8881 13.8881 11 13.75 11H1.25C1.11193 11 1 10.8881 1 10.75V3.25ZM1.25 2C0.559643 2 0 2.55964 0 3.25V10.75C0 11.4404 0.559644 12 1.25 12H5.07341L4.82991 13.2986C4.76645 13.6371 5.02612 13.95 5.37049 13.95H9.62951C9.97389 13.95 10.2336 13.6371 10.1701 13.2986L9.92659 12H13.75C14.4404 12 15 11.4404 15 10.75V3.25C15 2.55964 14.4404 2 13.75 2H1.25ZM9.01091 12H5.98909L5.79222 13.05H9.20778L9.01091 12Z"
    fill="currentColor"
  />
</svg>

<svg xmlns="http://www.w3.org/2000/svg" width="15" height="15" fill="none"><path fill="currentColor" fill-rule="evenodd" d="M1 3.25A.25.25 0 0 1 1.25 3h12.5a.25.25 0 0 1 .25.25v7.5a.25.25 0 0 1-.25.25H1.25a.25.25 0 0 1-.25-.25zM1.25 2C.56 2 0 2.56 0 3.25v7.5C0 11.44.56 12 1.25 12h3.823l-.243 1.299a.55.55 0 0 0 .54.651h4.26a.55.55 0 0 0 .54-.651L9.927 12h3.823c.69 0 1.25-.56 1.25-1.25v-7.5C15 2.56 14.44 2 13.75 2zm7.76 10H5.99l-.198 1.05h3.416z" clip-rule="evenodd"/></svg>
